X: 7920
T: Concert, The
R: hornpipe
M: 4/4
K: Dmajor
|:(3AGE|F>Af>A F>A f2|G>B e2 F>A d2|g2 (3fgf e2 (3ded|(3cdc (3BcB A2 (3AGE|
F>Af>A F>Af>A|G>Be>B F>Ad>f|(3gag f2 (3efe d2|(3cBA (3ABc d2:|
|:(3cde|f>Fe>F d>Fc>F|(3B^AB (3FBd f>dB>d|(3^AcA (3FAc f>ed>c|(3B^AB (3c^Bc (3dcd (3e^de|
(3fFF (3eFF (3dFF (3cFF|(3B^AB (3FBd f>d B2|c>F^A>c f>ed>c|(3B^AB (3cBA B2:|

